img/icons/round-arr.svg

<svg width="18" height="19" viewBox="0 0 18 19" fill="none" xmlns="http://www.w3.org/2000/svg">
<path d="M15.0367 3.84674C16.6768 5.42562 17.6462 7.68217 17.6462 10.1387C17.6486 13.0988 16.1567 15.9719 13.6578 17.5696C11.2295 19.1202 8.09527 19.4332 5.40812 18.3955C2.9092 17.4308 0.789123 15.306 0.0196833 11.9223C-0.0956151 11.4117 0.311459 10.9317 0.826772 10.9317C1.21267 10.9317 1.5468 11.207 1.63151 11.5811C2.26682 14.3459 3.98453 16.0825 6.0152 16.866C8.20822 17.7131 10.7777 17.4566 12.759 16.1884C14.592 15.0189 15.9614 12.9741 16.0014 10.1317C16.0414 7.15745 14.2649 4.62559 11.5519 3.47966C9.10237 2.44669 6.31168 2.7667 4.2269 4.45617L6.48815 4.86795C7.54466 5.0609 7.21759 6.6586 6.24109 6.48448L2.37742 5.79269C1.90681 5.70798 1.65268 5.31032 1.72328 4.86795L2.39624 0.625443C2.55154 -0.355769 4.16807 -0.113407 4.01512 0.872511L3.71864 2.79258C7.23877 0.376022 12.0178 0.936043 15.0367 3.84674Z" fill="white"/>
</svg>

<svg width="18" height="19" fill="none" xmlns="http://www.w3.org/2000/svg"><path d="M15.037 3.847c1.64 1.579 2.61 3.835 2.61 6.292.002 2.96-1.49 5.833-3.99 7.43-2.428 1.551-5.562 1.864-8.249.826C2.91 17.431.79 15.306.02 11.922c-.116-.51.291-.99.807-.99.386 0 .72.275.805.65.635 2.764 2.353 4.5 4.383 5.284 2.193.847 4.763.59 6.744-.678 1.833-1.17 3.202-3.214 3.242-6.056.04-2.975-1.736-5.506-4.45-6.652-2.449-1.033-5.24-.713-7.324.976l2.261.412c1.057.193.73 1.79-.247 1.616l-3.864-.691c-.47-.085-.724-.483-.654-.925L2.396.625c.156-.98 1.772-.738 1.62.248l-.297 1.92C7.239.376 12.018.936 15.037 3.847Z" fill="#fff"/></svg>
